X:1
T:Monica
T:Monica
C:Elmer Bernstein
Z:All Rights Reserved
L:1/4
M:4/4
K:F
V:1 treble nm="Piano" snm="Pno."
%%MIDI program 0
%%MIDI control 7 100
%%MIDI control 10 64
V:1
"Fmaj7" A3/2 G/ C2- |"Dm7" C D E F |"Gm7" A3 G |"C7b9" B3 A |"Fmaj9" c3/2 A/ E2- |"Dm7" E F G A | %6
w: Mon- i- ca|_ a per- fect|day in|spring. That's|Mon- i- ca,|_ the dream that|
"Gm7" c3 B |"C9""C+9" d4 |"F" d c2 =B |"Gm7" d"C7" c2 =B |"Fmaj7" d c"F6" F3/2 G/ |"Em7""A7" A4 | %12
w: rain- bows|bring.|More than just|mu- sic when-|ev- er you ap-|pear,|
"Dm" _B A2 ^F |"Em7b5" B"A7" A2 ^F |"Dm" B A D3/2 E/ |"Gm7" F2"C7b9""C7" G2 |"Fmaj7" A3/2 G/ C2- | %17
w: You are the|mu- sic the|stars fall down to|hear! So,|Mon- i- ca,|
"Dm7" C D E F |"Gm7" A3 G |"C7b9" B3 A |"Fmaj7" c3/2 A/ E2- |"Dm7" E F G A |"Gm7" c3 B | %23
w: _ I'm won- d'ring|with each|kiss what|mir- a- cle|_ brings you as|close as|
"Em7b5" d3"A7" ^c |"Dm" e d- (3d ^G A |"Cm7" d c-"F7b9" (3c ^G A |"Bb" c B D F |"Em7""A7" A3 G | %28
w: this. Let|waves break, _ let the|winds rush, _ when I|say that I love|you; But|
"Dm" F G"Bbm" F G |"F" B3/2 A/ C2 |"Bbm" z _D _E F |"Fmaj7" A3/2 G/ F2- | F3 z |] %33
w: what a mo- ment|Mon- i- ca,|If you should|say it too.|_|

